; generated by PrusaSlicer 2.3.1+win64 on 2023-06-04 at 16:09:11 UTC

; 

; external perimeters extrusion width = 0.45mm
; perimeters extrusion width = 0.45mm
; infill extrusion width = 0.45mm
; solid infill extrusion width = 0.45mm
; top infill extrusion width = 0.40mm
; first layer extrusion width = 0.42mm

M201 X500 Y500 Z100 E1000 ; sets maximum accelerations, mm/sec^2
M203 X500 Y500 Z5 E60 ; sets maximum feedrates, mm/sec
M204 P500 R1000 T500 ; sets acceleration (P, T) and retract acceleration (R), mm/sec^2
M205 X8.00 Y8.00 Z0.40 E5.00 ; sets the jerk limits, mm/sec
M205 S0 T0 ; sets the minimum extruding and travel feed rate, mm/sec
M107
;TYPE:Custom
G90 ; use absolute coordinates
M83 ; extruder relative mode
M104 S120 ; set temporary nozzle temp to prevent oozing during homing and auto bed leveling
M140 S60 ; set final bed temp
G4 S10 ; allow partial nozzle warmup
G28 ; home all axis
G1 Z50 F240
G1 X2 Y10 F3000
M104 S200 ; set final nozzle temp
M190 S60 ; wait for bed temp to stabilize
M109 S200 ; wait for nozzle temp to stabilize
G1 Z0.28 F240
G92 E0
G1 Y140 E10 F1500 ; prime the nozzle
G1 X2.3 F5000
G92 E0
G1 Y10 E10 F1200 ; prime the nozzle
G92 E0
G21 ; set units to millimeters
G90 ; use absolute coordinates
M83 ; use relative distances for extrusion
; Filament gcode
;LAYER_CHANGE
;Z:0.3
;HEIGHT:0.3
;BEFORE_LAYER_CHANGE
G92 E0
;0.3


G1 E-6.00000 F3600.000
G1 Z0.300 F9000.000
;AFTER_LAYER_CHANGE
;0.3
G1 X26.007 Y26.666
G1 E6.00000 F2400.000
;TYPE:Skirt
;WIDTH:0.42
G1 F1200.000
G1 X26.722 Y26.089 E0.04075
G1 X27.579 Y25.558 E0.04470
G1 X28.385 Y25.192 E0.03930
G1 X29.279 Y24.912 E0.04153
G1 X30.162 Y24.745 E0.03985
G1 X31.052 Y24.687 E0.03959
G1 X146.609 Y24.687 E5.12550
G1 X148.023 Y24.823 E0.06300
G1 X149.467 Y25.249 E0.06678
G1 X150.766 Y25.939 E0.06522
G1 X151.855 Y26.817 E0.06206
G1 X152.747 Y27.849 E0.06050
G1 X153.482 Y29.117 E0.06502
G1 X153.953 Y30.500 E0.06479
G1 X154.147 Y31.872 E0.06147
G1 X154.139 Y86.746 E2.43390
G1 X154.021 Y87.650 E0.04046
G1 X153.769 Y88.623 E0.04457
G1 X153.414 Y89.505 E0.04220
G1 X152.969 Y90.302 E0.04046
G1 X152.376 Y91.110 E0.04448
G1 X151.740 Y91.782 E0.04104
G1 X151.021 Y92.366 E0.04104
G1 X150.162 Y92.900 E0.04487
G1 X149.320 Y93.284 E0.04107
G1 X148.428 Y93.571 E0.04154
G1 X147.564 Y93.735 E0.03901
G1 X146.657 Y93.794 E0.04033
G1 X30.925 Y93.792 E5.13324
G1 X29.948 Y93.705 E0.04355
G1 X28.951 Y93.480 E0.04531
G1 X28.033 Y93.144 E0.04335
G1 X27.180 Y92.694 E0.04279
G1 X26.357 Y92.116 E0.04463
G1 X25.582 Y91.394 E0.04697
G1 X24.974 Y90.653 E0.04250
G1 X24.420 Y89.764 E0.04644
G1 X24.054 Y88.958 E0.03930
G1 X23.774 Y88.064 E0.04154
G1 X23.615 Y87.239 E0.03726
G1 X23.550 Y86.346 E0.03973
G1 X23.558 Y31.893 E2.41526
G1 X23.663 Y30.936 E0.04267
G1 X23.911 Y29.932 E0.04590
G1 X24.267 Y29.021 E0.04336
G1 X24.744 Y28.166 E0.04345
G1 X25.303 Y27.403 E0.04192
G1 X25.966 Y26.709 E0.04257
G1 X26.223 Y26.955 F9000.000
G1 F1200.000
G1 X26.940 Y26.370 E0.04107
G1 X27.760 Y25.865 E0.04270
G1 X28.529 Y25.517 E0.03745
G1 X29.375 Y25.254 E0.03928
G1 X30.211 Y25.098 E0.03772
G1 X31.056 Y25.043 E0.03758
G1 X146.609 Y25.042 E5.12534
G1 X147.954 Y25.172 E0.05993
G1 X149.334 Y25.579 E0.06381
G1 X150.580 Y26.242 E0.06260
G1 X151.615 Y27.079 E0.05906
G1 X152.462 Y28.062 E0.05754
G1 X153.164 Y29.277 E0.06222
G1 X153.609 Y30.594 E0.06169
G1 X153.792 Y31.902 E0.05858
G1 X153.786 Y86.707 E2.43085
G1 X153.669 Y87.614 E0.04059
G1 X153.432 Y88.510 E0.04108
G1 X153.093 Y89.351 E0.04023
G1 X152.669 Y90.111 E0.03858
G1 X152.099 Y90.887 E0.04272
G1 X151.492 Y91.527 E0.03915
G1 X150.806 Y92.083 E0.03915
G1 X149.980 Y92.594 E0.04305
G1 X149.179 Y92.957 E0.03902
G1 X148.333 Y93.228 E0.03942
G1 X147.516 Y93.382 E0.03688
G1 X146.652 Y93.438 E0.03838
G1 X30.943 Y93.437 E5.13227
G1 X30.010 Y93.355 E0.04154
G1 X29.054 Y93.140 E0.04345
G1 X28.178 Y92.819 E0.04139
G1 X27.363 Y92.389 E0.04085
G1 X26.579 Y91.838 E0.04254
G1 X25.838 Y91.147 E0.04493
G1 X25.258 Y90.440 E0.04056
G1 X24.727 Y89.584 E0.04468
G1 X24.382 Y88.820 E0.03716
G1 X24.116 Y87.968 E0.03960
G1 X23.905 Y86.335 E0.07303
G1 X23.912 Y31.921 E2.41354
G1 X24.013 Y31.002 E0.04097
G1 X24.250 Y30.039 E0.04403
G1 X24.591 Y29.170 E0.04140
G1 X25.045 Y28.355 E0.04139
G1 X25.583 Y27.623 E0.04028
G1 X26.181 Y26.999 E0.03835
G1 E-4.20000 F3600.000
;WIPE_START
G1 F7200.000
G1 X26.940 Y26.370 E-0.46812
G1 X27.760 Y25.865 E-0.45725
G1 X28.529 Y25.517 E-0.40103
G1 X29.300 Y25.278 E-0.38361
;WIPE_END
G1 E-0.09000 F3600.000
G1 X29.470 Y25.597 F9000.000
G1 E6.00000 F2400.000
G1 F1200.000
G1 X31.060 Y25.398 E0.07106
G1 X146.609 Y25.398 E5.12516
G1 X147.886 Y25.521 E0.05689
G1 X149.207 Y25.911 E0.06109
G1 X150.388 Y26.542 E0.05940
G1 X151.375 Y27.342 E0.05634
G1 X152.177 Y28.276 E0.05461
G1 X152.846 Y29.436 E0.05940
G1 X153.268 Y30.694 E0.05885
G1 X153.438 Y31.938 E0.05569
G1 X153.432 Y86.669 E2.42758
G1 X153.322 Y87.537 E0.03880
G1 X153.096 Y88.392 E0.03923
G1 X152.775 Y89.192 E0.03823
G1 X152.372 Y89.915 E0.03672
G1 X151.826 Y90.659 E0.04093
G1 X151.243 Y91.273 E0.03754
G1 X150.589 Y91.800 E0.03727
G1 X149.799 Y92.287 E0.04116
G1 X148.238 Y92.885 E0.07418
G1 X146.648 Y93.083 E0.07106
G1 X30.953 Y93.081 E5.13160
G1 X30.040 Y93.000 E0.04065
G1 X29.103 Y92.783 E0.04268
G1 X28.253 Y92.463 E0.04026
G1 X27.459 Y92.030 E0.04015
G1 X26.747 Y91.516 E0.03892
G1 X26.060 Y90.864 E0.04204
G1 X25.528 Y90.205 E0.03754
G1 X25.034 Y89.403 E0.04178
G1 X24.459 Y87.872 E0.07256
G1 X24.261 Y86.324 E0.06920
G1 X24.267 Y31.948 E2.41186
G1 X24.361 Y31.074 E0.03899
G1 X24.587 Y30.151 E0.04214
G1 X24.911 Y29.323 E0.03944
G1 X25.347 Y28.544 E0.03959
G1 X25.855 Y27.852 E0.03809
G1 X26.503 Y27.177 E0.04149
G1 X27.153 Y26.655 E0.03699
G1 X27.940 Y26.172 E0.04095
G1 X29.414 Y25.618 E0.06984
G1 E-4.20000 F3600.000
;WIPE_START
G1 F7200.000
G1 X31.060 Y25.398 E-0.78873
G1 X32.999 Y25.398 E-0.92127
;WIPE_END
G1 E-0.09000 F3600.000
G1 X31.412 Y32.550 F9000.000
G1 E6.00000 F2400.000
;TYPE:Perimeter
G1 F1200.000
G1 X146.293 Y32.551 E5.09554
G1 X146.294 Y85.931 E2.36768
G1 X31.412 Y85.931 E5.09554
G1 X31.412 Y32.610 E2.36506
G1 X31.056 Y32.278 F9000.000
;TYPE:External perimeter
G1 F1200.000
G1 X31.076 Y32.214 E0.00295
G1 X31.140 Y32.194 E0.00295
G1 X146.573 Y32.195 E5.12003
G1 X146.629 Y32.213 E0.00260
G1 X146.649 Y32.278 E0.00299
G1 X146.646 Y86.238 E2.39341
G1 X146.626 Y86.271 E0.00171
G1 X146.572 Y86.287 E0.00247
G1 X31.140 Y86.287 E5.11998
G1 X31.076 Y86.267 E0.00295
G1 X31.056 Y86.203 E0.00295
G1 X31.056 Y32.338 E2.38921
G1 X31.120 Y32.256 F9000.000
G1 E-4.20000 F3600.000
;WIPE_START
G1 F7200.000
G1 X31.076 Y32.214 E-0.05942
G1 X31.140 Y32.194 E-0.03161
G1 X34.548 Y32.194 E-1.61897
;WIPE_END
G1 E-0.09000 F3600.000
G1 X145.466 Y32.657 F9000.000
G1 E6.00000 F2400.000
;TYPE:Solid infill
;WIDTH:0.42092
G1 F1200.000
G1 X146.027 Y33.218 E0.03527
G1 X146.027 Y33.722 E0.02242
G1 X145.122 Y32.817 E0.05692
G1 X144.617 Y32.817 E0.02242
G1 X146.027 Y34.227 E0.08863
G1 X146.027 Y34.731 E0.02242
G1 X144.113 Y32.817 E0.12034
G1 X143.609 Y32.817 E0.02242
G1 X146.027 Y35.235 E0.15205
G1 X146.027 Y35.739 E0.02242
G1 X143.105 Y32.817 E0.18376
G1 X142.601 Y32.817 E0.02242
G1 X146.027 Y36.244 E0.21547
G1 X146.027 Y36.748 E0.02242
G1 X142.096 Y32.817 E0.24718
G1 X141.592 Y32.817 E0.02242
G1 X146.027 Y37.252 E0.27889
G1 X146.027 Y37.756 E0.02242
G1 X141.088 Y32.817 E0.31060
G1 X140.584 Y32.817 E0.02242
G1 X146.027 Y38.260 E0.34231
G1 X146.027 Y38.765 E0.02242
G1 X140.079 Y32.817 E0.37402
G1 X139.575 Y32.817 E0.02242
G1 X146.027 Y39.269 E0.40573
G1 X146.027 Y39.773 E0.02242
G1 X139.071 Y32.817 E0.43744
G1 X138.567 Y32.817 E0.02242
G1 X146.027 Y40.277 E0.46915
G1 X146.027 Y40.782 E0.02242
G1 X138.063 Y32.817 E0.50086
G1 X137.558 Y32.817 E0.02242
G1 X146.027 Y41.286 E0.53257
G1 X146.027 Y41.790 E0.02242
G1 X137.054 Y32.817 E0.56428
G1 X136.550 Y32.817 E0.02242
G1 X146.027 Y42.294 E0.59600
G1 X146.027 Y42.798 E0.02242
G1 X136.046 Y32.817 E0.62771
G1 X135.541 Y32.817 E0.02242
G1 X146.027 Y43.303 E0.65942
G1 X146.027 Y43.807 E0.02242
G1 X135.037 Y32.817 E0.69113
G1 X134.533 Y32.817 E0.02242
G1 X146.027 Y44.311 E0.72284
G1 X146.027 Y44.815 E0.02242
G1 X134.029 Y32.817 E0.75455
G1 X133.524 Y32.817 E0.02242
G1 X146.027 Y45.320 E0.78626
G1 X146.027 Y45.824 E0.02242
G1 X133.020 Y32.817 E0.81797
G1 X132.516 Y32.817 E0.02242
G1 X146.027 Y46.328 E0.84968
G1 X146.027 Y46.832 E0.02242
G1 X132.012 Y32.817 E0.88139
G1 X131.508 Y32.817 E0.02242
G1 X146.027 Y47.336 E0.91310
G1 X146.027 Y47.841 E0.02242
G1 X131.003 Y32.817 E0.94481
G1 X130.499 Y32.817 E0.02242
G1 X146.027 Y48.345 E0.97652
G1 X146.027 Y48.849 E0.02242
G1 X129.995 Y32.817 E1.00823
G1 X129.491 Y32.817 E0.02242
G1 X146.027 Y49.353 E1.03994
G1 X146.027 Y49.858 E0.02242
G1 X128.986 Y32.817 E1.07165
G1 X128.482 Y32.817 E0.02242
G1 X146.027 Y50.362 E1.10336
G1 X146.027 Y50.866 E0.02242
G1 X127.978 Y32.817 E1.13507
G1 X127.474 Y32.817 E0.02242
G1 X146.027 Y51.370 E1.16678
G1 X146.027 Y51.874 E0.02242
G1 X126.970 Y32.817 E1.19850
G1 X126.465 Y32.817 E0.02242
G1 X146.027 Y52.379 E1.23021
G1 X146.027 Y52.883 E0.02242
G1 X125.961 Y32.817 E1.26192
G1 X125.457 Y32.817 E0.02242
G1 X146.027 Y53.387 E1.29363
G1 X146.027 Y53.891 E0.02242
G1 X124.953 Y32.817 E1.32534
G1 X124.448 Y32.817 E0.02242
G1 X146.027 Y54.396 E1.35705
G1 X146.027 Y54.900 E0.02242
G1 X123.944 Y32.817 E1.38876
G1 X123.440 Y32.817 E0.02242
G1 X146.027 Y55.404 E1.42047
G1 X146.027 Y55.908 E0.02242
G1 X122.936 Y32.817 E1.45218
G1 X122.432 Y32.817 E0.02242
G1 X146.027 Y56.412 E1.48389
G1 X146.027 Y56.917 E0.02242
G1 X121.927 Y32.817 E1.51560
G1 X121.423 Y32.817 E0.02242
G1 X146.027 Y57.421 E1.54731
G1 X146.027 Y57.925 E0.02242
G1 X120.919 Y32.817 E1.57902
G1 X120.415 Y32.817 E0.02242
G1 X146.027 Y58.429 E1.61073
G1 X146.027 Y58.934 E0.02242
G1 X119.910 Y32.817 E1.64244
G1 X119.406 Y32.817 E0.02242
G1 X146.027 Y59.438 E1.67415
G1 X146.027 Y59.942 E0.02242
G1 X118.902 Y32.817 E1.70586
G1 X118.398 Y32.817 E0.02242
G1 X146.027 Y60.446 E1.73757
G1 X146.027 Y60.950 E0.02242
G1 X117.893 Y32.817 E1.76928
G1 X117.389 Y32.817 E0.02242
G1 X146.027 Y61.455 E1.80100
G1 X146.027 Y61.959 E0.02242
G1 X116.885 Y32.817 E1.83271
G1 X116.381 Y32.817 E0.02242
G1 X146.027 Y62.463 E1.86442
G1 X146.027 Y62.967 E0.02242
G1 X115.877 Y32.817 E1.89613
G1 X115.372 Y32.817 E0.02242
G1 X146.027 Y63.472 E1.92784
G1 X146.027 Y63.976 E0.02242
G1 X114.868 Y32.817 E1.95955
G1 X114.364 Y32.817 E0.02242
G1 X146.027 Y64.480 E1.99126
G1 X146.027 Y64.984 E0.02242
G1 X113.860 Y32.817 E2.02297
G1 X113.355 Y32.817 E0.02242
G1 X146.027 Y65.488 E2.05468
G1 X146.027 Y65.993 E0.02242
G1 X112.851 Y32.817 E2.08639
G1 X112.347 Y32.817 E0.02242
G1 X146.027 Y66.497 E2.11810
G1 X146.027 Y67.001 E0.02242
G1 X111.843 Y32.817 E2.14981
G1 X111.339 Y32.817 E0.02242
G1 X146.027 Y67.505 E2.18152
G1 X146.027 Y68.010 E0.02242
G1 X110.834 Y32.817 E2.21323
G1 X110.330 Y32.817 E0.02242
G1 X146.027 Y68.514 E2.24494
G1 X146.027 Y69.018 E0.02242
G1 X109.826 Y32.817 E2.27665
G1 X109.322 Y32.817 E0.02242
G1 X146.027 Y69.522 E2.30836
G1 X146.027 Y70.026 E0.02242
G1 X108.817 Y32.817 E2.34007
G1 X108.313 Y32.817 E0.02242
G1 X146.027 Y70.531 E2.37179
G1 X146.027 Y71.035 E0.02242
G1 X107.809 Y32.817 E2.40350
G1 X107.305 Y32.817 E0.02242
G1 X146.027 Y71.539 E2.43521
G1 X146.027 Y72.043 E0.02242
G1 X106.801 Y32.817 E2.46692
G1 X106.296 Y32.817 E0.02242
G1 X146.027 Y72.548 E2.49863
G1 X146.027 Y73.052 E0.02242
G1 X105.792 Y32.817 E2.53034
G1 X105.288 Y32.817 E0.02242
G1 X146.027 Y73.556 E2.56205
G1 X146.027 Y74.060 E0.02242
G1 X104.784 Y32.817 E2.59376
G1 X104.279 Y32.817 E0.02242
G1 X146.027 Y74.564 E2.62547
G1 X146.027 Y75.069 E0.02242
G1 X103.775 Y32.817 E2.65718
G1 X103.271 Y32.817 E0.02242
G1 X146.027 Y75.573 E2.68889
G1 X146.027 Y76.077 E0.02242
G1 X102.767 Y32.817 E2.72060
G1 X102.262 Y32.817 E0.02242
G1 X146.027 Y76.581 E2.75231
G1 X146.027 Y77.086 E0.02242
G1 X101.758 Y32.817 E2.78402
G1 X101.254 Y32.817 E0.02242
G1 X146.027 Y77.590 E2.81573
G1 X146.027 Y78.094 E0.02242
G1 X100.750 Y32.817 E2.84744
G1 X100.246 Y32.817 E0.02242
G1 X146.027 Y78.598 E2.87915
G1 X146.027 Y79.103 E0.02242
G1 X99.741 Y32.817 E2.91086
G1 X99.237 Y32.817 E0.02242
G1 X146.027 Y79.607 E2.94257
G1 X146.027 Y80.111 E0.02242
G1 X98.733 Y32.817 E2.97429
G1 X98.229 Y32.817 E0.02242
G1 X146.027 Y80.615 E3.00600
G1 X146.027 Y81.119 E0.02242
G1 X97.724 Y32.817 E3.03771
G1 X97.220 Y32.817 E0.02242
G1 X146.027 Y81.624 E3.06942
G1 X146.027 Y82.128 E0.02242
G1 X96.716 Y32.817 E3.10113
G1 X96.212 Y32.817 E0.02242
G1 X146.027 Y82.632 E3.13284
G1 X146.027 Y83.136 E0.02242
G1 X95.708 Y32.817 E3.16455
G1 X95.203 Y32.817 E0.02242
G1 X146.027 Y83.641 E3.19626
G1 X146.027 Y84.145 E0.02242
G1 X94.699 Y32.817 E3.22797
G1 X94.195 Y32.817 E0.02242
G1 X146.027 Y84.649 E3.25968
G1 X146.027 Y85.153 E0.02242
G1 X93.691 Y32.817 E3.29139
G1 X93.186 Y32.817 E0.02242
G1 X146.027 Y85.664 E3.32332
G1 X145.530 Y85.664 E0.02211
G1 X92.682 Y32.817 E3.32354
G1 X92.178 Y32.817 E0.02242
G1 X145.025 Y85.664 E3.32354
G1 X144.521 Y85.664 E0.02242
G1 X91.674 Y32.817 E3.32354
G1 X91.169 Y32.817 E0.02242
G1 X144.017 Y85.664 E3.32354
G1 X143.513 Y85.664 E0.02242
G1 X90.665 Y32.817 E3.32354
G1 X90.161 Y32.817 E0.02242
G1 X143.008 Y85.664 E3.32354
G1 X142.504 Y85.664 E0.02242
G1 X89.657 Y32.817 E3.32354
G1 X89.153 Y32.817 E0.02242
G1 X142.000 Y85.664 E3.32354
G1 X141.496 Y85.664 E0.02242
G1 X88.648 Y32.817 E3.32354
G1 X88.144 Y32.817 E0.02242
G1 X140.992 Y85.664 E3.32354
G1 X140.487 Y85.664 E0.02242
G1 X87.640 Y32.817 E3.32354
G1 X87.136 Y32.817 E0.02242
G1 X139.983 Y85.664 E3.32355
G1 X139.479 Y85.664 E0.02242
G1 X86.631 Y32.817 E3.32355
G1 X86.127 Y32.817 E0.02242
G1 X138.975 Y85.664 E3.32355
G1 X138.470 Y85.664 E0.02242
G1 X85.623 Y32.817 E3.32355
G1 X85.119 Y32.817 E0.02242
G1 X137.966 Y85.664 E3.32355
G1 X137.462 Y85.664 E0.02242
G1 X84.615 Y32.817 E3.32355
G1 X84.110 Y32.817 E0.02242
G1 X136.958 Y85.664 E3.32355
G1 X136.454 Y85.664 E0.02242
G1 X83.606 Y32.817 E3.32355
G1 X83.102 Y32.817 E0.02242
G1 X135.949 Y85.664 E3.32355
G1 X135.445 Y85.664 E0.02242
G1 X82.598 Y32.817 E3.32355
G1 X82.093 Y32.817 E0.02242
G1 X134.941 Y85.664 E3.32355
G1 X134.437 Y85.664 E0.02242
G1 X81.589 Y32.817 E3.32355
G1 X81.085 Y32.817 E0.02242
G1 X133.932 Y85.664 E3.32355
G1 X133.428 Y85.664 E0.02242
G1 X80.581 Y32.817 E3.32355
G1 X80.077 Y32.817 E0.02242
G1 X132.924 Y85.664 E3.32355
G1 X132.420 Y85.664 E0.02242
G1 X79.572 Y32.817 E3.32355
G1 X79.068 Y32.817 E0.02242
G1 X131.916 Y85.664 E3.32355
G1 X131.411 Y85.664 E0.02242
G1 X78.564 Y32.817 E3.32355
G1 X78.060 Y32.817 E0.02242
G1 X130.907 Y85.664 E3.32355
G1 X130.403 Y85.664 E0.02242
G1 X77.555 Y32.817 E3.32355
G1 X77.051 Y32.817 E0.02242
G1 X129.899 Y85.664 E3.32355
G1 X129.394 Y85.664 E0.02242
G1 X76.547 Y32.817 E3.32355
G1 X76.043 Y32.817 E0.02242
G1 X128.890 Y85.664 E3.32355
G1 X128.386 Y85.664 E0.02242
G1 X75.538 Y32.817 E3.32355
G1 X75.034 Y32.817 E0.02242
G1 X127.882 Y85.664 E3.32355
G1 X127.378 Y85.664 E0.02242
G1 X74.530 Y32.817 E3.32355
G1 X74.026 Y32.817 E0.02242
G1 X126.873 Y85.664 E3.32355
G1 X126.369 Y85.664 E0.02242
G1 X73.522 Y32.817 E3.32355
G1 X73.017 Y32.817 E0.02242
G1 X125.865 Y85.664 E3.32355
G1 X125.361 Y85.664 E0.02242
G1 X72.513 Y32.817 E3.32355
G1 X72.009 Y32.817 E0.02242
G1 X124.856 Y85.664 E3.32355
G1 X124.352 Y85.664 E0.02242
G1 X71.505 Y32.817 E3.32355
G1 X71.000 Y32.817 E0.02242
G1 X123.848 Y85.664 E3.32355
G1 X123.344 Y85.664 E0.02242
G1 X70.496 Y32.817 E3.32355
G1 X69.992 Y32.817 E0.02242
G1 X122.840 Y85.664 E3.32355
G1 X122.335 Y85.664 E0.02242
G1 X69.488 Y32.817 E3.32355
G1 X68.984 Y32.817 E0.02242
G1 X121.831 Y85.664 E3.32355
G1 X121.327 Y85.664 E0.02242
G1 X68.479 Y32.817 E3.32355
G1 X67.975 Y32.817 E0.02242
G1 X120.823 Y85.664 E3.32355
G1 X120.318 Y85.664 E0.02242
G1 X67.471 Y32.817 E3.32355
G1 X66.967 Y32.817 E0.02242
G1 X119.814 Y85.664 E3.32356
G1 X119.310 Y85.664 E0.02242
G1 X66.462 Y32.817 E3.32356
G1 X65.958 Y32.817 E0.02242
G1 X118.806 Y85.664 E3.32356
G1 X118.302 Y85.664 E0.02242
G1 X65.454 Y32.817 E3.32356
G1 X64.950 Y32.817 E0.02242
G1 X117.797 Y85.664 E3.32356
