; generated by PrusaSlicer 2.3.1+win64 on 2023-06-04 at 16:10:51 UTC

; 

; external perimeters extrusion width = 0.45mm
; perimeters extrusion width = 0.45mm
; infill extrusion width = 0.45mm
; solid infill extrusion width = 0.45mm
; top infill extrusion width = 0.40mm
; first layer extrusion width = 0.42mm

M201 X500 Y500 Z100 E1000 ; sets maximum accelerations, mm/sec^2
M203 X500 Y500 Z5 E60 ; sets maximum feedrates, mm/sec
M204 P500 R1000 T500 ; sets acceleration (P, T) and retract acceleration (R), mm/sec^2
M205 X8.00 Y8.00 Z0.40 E5.00 ; sets the jerk limits, mm/sec
M205 S0 T0 ; sets the minimum extruding and travel feed rate, mm/sec
M107
;TYPE:Custom
G90 ; use absolute coordinates
M83 ; extruder relative mode
M104 S120 ; set temporary nozzle temp to prevent oozing during homing and auto bed leveling
M140 S60 ; set final bed temp
G4 S10 ; allow partial nozzle warmup
G28 ; home all axis
G1 Z50 F240
G1 X2 Y10 F3000
M104 S200 ; set final nozzle temp
M190 S60 ; wait for bed temp to stabilize
M109 S200 ; wait for nozzle temp to stabilize
G1 Z0.28 F240
G92 E0
G1 Y140 E10 F1500 ; prime the nozzle
G1 X2.3 F5000
G92 E0
G1 Y10 E10 F1200 ; prime the nozzle
G92 E0
G21 ; set units to millimeters
G90 ; use absolute coordinates
M83 ; use relative distances for extrusion
; Filament gcode
;LAYER_CHANGE
;Z:0.3
;HEIGHT:0.3
;BEFORE_LAYER_CHANGE
G92 E0
;0.3


G1 E-6.00000 F3600.000
G1 Z0.300 F9000.000
;AFTER_LAYER_CHANGE
;0.3
G1 X17.908 Y25.529
G1 E6.00000 F2400.000
;TYPE:Skirt
;WIDTH:0.42
G1 F1200.000
G1 X18.705 Y25.033 E0.04163
G1 X19.587 Y24.633 E0.04297
G1 X20.406 Y24.371 E0.03814
G1 X21.372 Y24.194 E0.04354
G1 X22.229 Y24.135 E0.03814
G1 X137.787 Y24.135 E5.12556
G1 X139.235 Y24.277 E0.06450
G1 X140.543 Y24.661 E0.06050
G1 X141.829 Y25.309 E0.06386
G1 X143.010 Y26.232 E0.06649
G1 X143.965 Y27.345 E0.06502
G1 X144.644 Y28.520 E0.06021
G1 X145.125 Y29.878 E0.06388
G1 X145.338 Y31.335 E0.06533
G1 X145.333 Y86.161 E2.43180
G1 X145.210 Y87.130 E0.04330
G1 X144.987 Y88.007 E0.04017
G1 X144.613 Y88.950 E0.04500
G1 X144.166 Y89.761 E0.04104
G1 X143.569 Y90.573 E0.04472
G1 X142.941 Y91.235 E0.04046
G1 X142.143 Y91.882 E0.04557
G1 X141.357 Y92.370 E0.04104
G1 X140.474 Y92.770 E0.04297
G1 X139.656 Y93.032 E0.03814
G1 X138.690 Y93.210 E0.04354
G1 X137.832 Y93.268 E0.03814
G1 X22.110 Y93.266 E5.13284
G1 X21.073 Y93.169 E0.04620
G1 X20.157 Y92.964 E0.04163
G1 X19.170 Y92.596 E0.04674
G1 X18.333 Y92.157 E0.04192
G1 X17.481 Y91.548 E0.04646
G1 X16.792 Y90.910 E0.04163
G1 X16.120 Y90.090 E0.04703
G1 X15.613 Y89.278 E0.04250
G1 X15.217 Y88.407 E0.04239
G1 X14.957 Y87.602 E0.03756
G1 X14.795 Y86.777 E0.03726
G1 X14.715 Y85.812 E0.04295
G1 X14.722 Y31.360 E2.41522
G1 X14.835 Y30.364 E0.04447
G1 X15.051 Y29.471 E0.04075
G1 X15.421 Y28.513 E0.04557
G1 X15.867 Y27.687 E0.04163
G1 X16.468 Y26.861 E0.04530
G1 X17.101 Y26.186 E0.04104
G1 X17.862 Y25.567 E0.04350
G1 E-4.20000 F3600.000
;WIPE_START
G1 F7200.000
G1 X18.705 Y25.033 E-0.47406
G1 X19.587 Y24.633 E-0.46016
G1 X20.406 Y24.371 E-0.40841
G1 X21.167 Y24.231 E-0.36736
;WIPE_END
G1 E-0.09000 F3600.000
G1 X20.500 Y24.714 F9000.000
G1 E6.00000 F2400.000
G1 F1200.000
G1 X22.234 Y24.491 E0.07758
G1 X137.787 Y24.490 E5.12532
G1 X139.172 Y24.627 E0.06170
G1 X140.416 Y24.993 E0.05754
G1 X141.642 Y25.612 E0.06091
G1 X142.769 Y26.494 E0.06348
G1 X143.679 Y27.556 E0.06204
G1 X144.324 Y28.675 E0.05725
G1 X144.783 Y29.976 E0.06122
G1 X144.984 Y31.367 E0.06234
G1 X144.979 Y86.124 E2.42871
G1 X144.861 Y87.061 E0.04189
G1 X144.649 Y87.898 E0.03830
G1 X144.290 Y88.801 E0.04310
G1 X143.864 Y89.574 E0.03915
G1 X143.295 Y90.346 E0.04255
G1 X142.697 Y90.977 E0.03858
G1 X141.931 Y91.596 E0.04366
G1 X141.175 Y92.064 E0.03943
G1 X139.562 Y92.689 E0.07674
G1 X137.827 Y92.913 E0.07758
G1 X22.121 Y92.911 E5.13214
G1 X21.123 Y92.817 E0.04444
G1 X20.256 Y92.623 E0.03943
G1 X19.310 Y92.269 E0.04480
G1 X18.512 Y91.849 E0.04000
G1 X17.696 Y91.264 E0.04452
G1 X17.040 Y90.655 E0.03971
G1 X16.401 Y89.873 E0.04479
G1 X15.919 Y89.096 E0.04056
G1 X15.298 Y87.501 E0.07590
G1 X15.070 Y85.799 E0.07616
G1 X15.077 Y31.388 E2.41340
G1 X15.185 Y30.430 E0.04275
G1 X15.390 Y29.578 E0.03886
G1 X15.745 Y28.660 E0.04366
G1 X16.170 Y27.873 E0.03971
G1 X16.746 Y27.082 E0.04339
G1 X17.351 Y26.439 E0.03915
G1 X18.125 Y25.811 E0.04423
G1 X18.886 Y25.340 E0.03971
G1 X20.444 Y24.736 E0.07408
G1 X20.571 Y25.066 F9000.000
G1 F1200.000
G1 X22.240 Y24.846 E0.07466
G1 X137.787 Y24.846 E5.12507
G1 X139.109 Y24.977 E0.05891
G1 X140.290 Y25.325 E0.05461
G1 X141.456 Y25.915 E0.05795
G1 X142.533 Y26.760 E0.06072
G1 X143.397 Y27.773 E0.05905
G1 X144.006 Y28.836 E0.05434
G1 X144.439 Y30.069 E0.05797
G1 X144.629 Y31.399 E0.05962
G1 X144.625 Y86.081 E2.42541
G1 X144.516 Y86.974 E0.03990
G1 X144.316 Y87.771 E0.03644
G1 X143.975 Y88.635 E0.04117
G1 X143.568 Y89.376 E0.03754
G1 X143.021 Y90.119 E0.04090
G1 X142.451 Y90.720 E0.03672
G1 X141.715 Y91.314 E0.04198
G1 X140.994 Y91.757 E0.03754
G1 X139.462 Y92.348 E0.07281
G1 X137.822 Y92.557 E0.07335
G1 X22.138 Y92.556 E5.13115
G1 X21.186 Y92.466 E0.04238
G1 X20.360 Y92.283 E0.03754
G1 X19.456 Y91.945 E0.04282
G1 X18.696 Y91.545 E0.03809
G1 X17.921 Y90.989 E0.04227
G1 X17.297 Y90.409 E0.03782
G1 X16.683 Y89.656 E0.04309
G1 X16.225 Y88.914 E0.03865
G1 X15.641 Y87.407 E0.07171
G1 X15.426 Y85.786 E0.07252
G1 X15.432 Y31.415 E2.41162
G1 X15.534 Y30.496 E0.04101
G1 X15.727 Y29.691 E0.03672
G1 X16.068 Y28.808 E0.04198
G1 X16.471 Y28.064 E0.03754
G1 X17.021 Y27.308 E0.04145
G1 X17.596 Y26.696 E0.03727
G1 X18.337 Y26.097 E0.04227
G1 X19.068 Y25.646 E0.03809
G1 X20.515 Y25.088 E0.06880
G1 E-4.20000 F3600.000
;WIPE_START
G1 F7200.000
G1 X22.240 Y24.846 E-0.82728
G1 X24.098 Y24.846 E-0.88272
;WIPE_END
G1 E-0.09000 F3600.000
G1 X60.378 Y61.410 F9000.000
G1 E6.00000 F2400.000
;TYPE:Perimeter
G1 F1200.000
G1 X61.265 Y60.523 E0.05564
G1 X61.875 Y60.066 E0.03382
G1 X62.269 Y59.771 E0.02182
G1 X63.370 Y59.170 E0.05564
G1 X64.546 Y58.732 E0.05564
G1 X65.771 Y58.465 E0.05564
G1 X66.926 Y58.382 E0.05134
G1 X68.271 Y58.464 E0.05978
G1 X69.500 Y58.732 E0.05578
G1 X70.675 Y59.170 E0.05564
G1 X71.776 Y59.771 E0.05564
G1 X72.780 Y60.523 E0.05564
G1 X73.667 Y61.410 E0.05564
G1 X74.159 Y62.067 E0.03639
G1 X74.419 Y62.414 E0.01925
G1 X75.020 Y63.515 E0.05564
G1 X75.459 Y64.691 E0.05564
G1 X75.551 Y65.115 E0.01925
G1 X75.725 Y65.916 E0.03639
G1 X75.815 Y67.168 E0.05564
G1 X75.725 Y68.419 E0.05564
G1 X75.551 Y69.221 E0.03639
G1 X75.459 Y69.645 E0.01925
G1 X75.020 Y70.820 E0.05564
G1 X74.419 Y71.921 E0.05564
G1 X73.667 Y72.925 E0.05564
G1 X72.780 Y73.812 E0.05564
G1 X71.776 Y74.564 E0.05564
G1 X70.675 Y75.165 E0.05564
G1 X69.500 Y75.604 E0.05564
G1 X68.274 Y75.870 E0.05564
G1 X67.023 Y75.960 E0.05564
G1 X65.771 Y75.870 E0.05564
G1 X64.546 Y75.604 E0.05564
G1 X63.370 Y75.165 E0.05564
G1 X62.269 Y74.564 E0.05564
G1 X61.265 Y73.812 E0.05564
G1 X60.378 Y72.925 E0.05564
G1 X59.626 Y71.921 E0.05564
G1 X59.025 Y70.820 E0.05564
G1 X58.586 Y69.645 E0.05564
G1 X58.320 Y68.419 E0.05564
G1 X58.230 Y67.168 E0.05564
G1 X58.320 Y65.916 E0.05564
G1 X58.586 Y64.691 E0.05564
G1 X59.025 Y63.515 E0.05564
G1 X59.626 Y62.414 E0.05564
G1 X60.342 Y61.458 E0.05298
G1 X60.627 Y61.671 F9000.000
;TYPE:External perimeter
G1 F1200.000
G1 X61.498 Y60.792 E0.05490
G1 X62.462 Y60.071 E0.05339
G1 X63.518 Y59.494 E0.05339
G1 X64.646 Y59.074 E0.05339
G1 X65.822 Y58.818 E0.05339
G1 X66.928 Y58.739 E0.04916
G1 X68.222 Y58.818 E0.05752
G1 X69.399 Y59.074 E0.05344
G1 X70.527 Y59.494 E0.05339
G1 X71.583 Y60.071 E0.05339
G1 X72.547 Y60.792 E0.05339
G1 X73.398 Y61.643 E0.05339
G1 X73.874 Y62.280 E0.03526
G1 X74.119 Y62.607 E0.01812
G1 X74.696 Y63.663 E0.05339
G1 X75.117 Y64.791 E0.05339
G1 X75.204 Y65.190 E0.01812
G1 X75.373 Y65.967 E0.03526
G1 X75.458 Y67.168 E0.05339
G1 X75.373 Y68.368 E0.05339
G1 X75.204 Y69.145 E0.03526
G1 X75.117 Y69.544 E0.01812
G1 X74.696 Y70.672 E0.05339
G1 X74.119 Y71.728 E0.05339
G1 X73.398 Y72.692 E0.05339
G1 X72.547 Y73.543 E0.05339
G1 X71.583 Y74.264 E0.05339
G1 X70.527 Y74.841 E0.05339
G1 X69.399 Y75.262 E0.05339
G1 X68.223 Y75.518 E0.05339
G1 X67.023 Y75.603 E0.05339
G1 X65.822 Y75.518 E0.05339
G1 X64.646 Y75.262 E0.05339
G1 X63.518 Y74.841 E0.05339
G1 X62.462 Y74.264 E0.05339
G1 X61.498 Y73.543 E0.05339
G1 X60.647 Y72.692 E0.05339
G1 X59.926 Y71.728 E0.05339
G1 X59.349 Y70.672 E0.05339
G1 X58.929 Y69.544 E0.05339
G1 X58.673 Y68.368 E0.05339
G1 X58.587 Y67.168 E0.05339
G1 X58.673 Y65.967 E0.05339
G1 X58.929 Y64.791 E0.05339
G1 X59.349 Y63.663 E0.05339
G1 X59.926 Y62.607 E0.05339
G1 X60.591 Y61.719 E0.04919
G1 X60.495 Y61.293 F9000.000
G1 E-4.20000 F3600.000
;WIPE_START
G1 F7200.000
G1 X61.498 Y60.792 E-0.61621
G1 X62.462 Y60.071 E-0.57171
G1 X63.427 Y59.544 E-0.52208
;WIPE_END
G1 E-0.09000 F3600.000
G1 X88.609 Y65.916 F9000.000
G1 E6.00000 F2400.000
;TYPE:Perimeter
G1 F1200.000
G1 X88.875 Y64.691 E0.05564
G1 X89.314 Y63.515 E0.05564
G1 X89.915 Y62.414 E0.05564
G1 X90.667 Y61.410 E0.05564
G1 X91.554 Y60.523 E0.05564
G1 X92.558 Y59.771 E0.05564
G1 X93.659 Y59.170 E0.05564
G1 X94.834 Y58.732 E0.05564
G1 X96.060 Y58.465 E0.05564
G1 X97.215 Y58.382 E0.05133
G1 X98.560 Y58.464 E0.05978
G1 X99.789 Y58.732 E0.05578
G1 X100.964 Y59.170 E0.05564
G1 X102.065 Y59.771 E0.05564
G1 X103.069 Y60.523 E0.05564
G1 X103.956 Y61.410 E0.05564
G1 X104.708 Y62.414 E0.05564
G1 X105.309 Y63.515 E0.05564
G1 X105.748 Y64.691 E0.05564
G1 X106.014 Y65.916 E0.05564
G1 X106.104 Y67.168 E0.05564
G1 X106.014 Y68.419 E0.05564
G1 X105.748 Y69.645 E0.05564
G1 X105.309 Y70.820 E0.05564
G1 X104.708 Y71.921 E0.05564
G1 X103.956 Y72.925 E0.05564
G1 X103.069 Y73.812 E0.05564
G1 X102.065 Y74.564 E0.05564
G1 X100.964 Y75.165 E0.05564
G1 X99.789 Y75.604 E0.05564
G1 X98.563 Y75.870 E0.05564
G1 X97.311 Y75.960 E0.05564
G1 X96.060 Y75.870 E0.05564
G1 X94.834 Y75.604 E0.05564
G1 X93.659 Y75.165 E0.05564
G1 X92.558 Y74.564 E0.05564
G1 X91.554 Y73.812 E0.05564
G1 X90.667 Y72.925 E0.05564
G1 X89.915 Y71.921 E0.05564
G1 X89.314 Y70.820 E0.05564
G1 X88.909 Y69.736 E0.05134
G1 X88.609 Y68.422 E0.05978
G1 X88.519 Y67.168 E0.05578
G1 X88.604 Y65.976 E0.05298
G1 X88.959 Y66.002 F9000.000
;TYPE:External perimeter
G1 F1200.000
G1 X89.217 Y64.791 E0.05490
G1 X89.638 Y63.663 E0.05339
G1 X90.215 Y62.607 E0.05339
G1 X90.936 Y61.643 E0.05339
G1 X91.787 Y60.792 E0.05339
G1 X92.751 Y60.071 E0.05339
G1 X93.807 Y59.494 E0.05339
G1 X94.935 Y59.074 E0.05339
G1 X96.111 Y58.818 E0.05339
G1 X97.217 Y58.739 E0.04916
G1 X98.511 Y58.818 E0.05752
G1 X99.688 Y59.074 E0.05344
G1 X100.816 Y59.494 E0.05339
G1 X101.872 Y60.071 E0.05339
G1 X102.836 Y60.792 E0.05339
G1 X103.687 Y61.643 E0.05339
G1 X104.408 Y62.607 E0.05339
G1 X104.985 Y63.663 E0.05339
G1 X105.406 Y64.791 E0.05339
G1 X105.661 Y65.967 E0.05339
G1 X105.747 Y67.168 E0.05339
G1 X105.661 Y68.368 E0.05339
G1 X105.406 Y69.544 E0.05339
G1 X104.985 Y70.672 E0.05339
G1 X104.408 Y71.728 E0.05339
G1 X103.687 Y72.692 E0.05339
G1 X102.836 Y73.543 E0.05339
G1 X101.872 Y74.264 E0.05339
G1 X100.816 Y74.841 E0.05339
G1 X99.688 Y75.262 E0.05339
G1 X98.512 Y75.518 E0.05339
G1 X97.311 Y75.603 E0.05339
G1 X96.111 Y75.518 E0.05339
G1 X94.935 Y75.262 E0.05339
G1 X93.807 Y74.841 E0.05339
G1 X92.751 Y74.264 E0.05339
G1 X91.787 Y73.543 E0.05339
G1 X90.936 Y72.692 E0.05339
G1 X90.215 Y71.728 E0.05339
G1 X89.638 Y70.672 E0.05339
G1 X89.251 Y69.634 E0.04916
G1 X88.962 Y68.369 E0.05752
G1 X88.876 Y67.168 E0.05344
G1 X88.955 Y66.061 E0.04919
G1 X88.644 Y65.755 F9000.000
G1 E-4.20000 F3600.000
;WIPE_START
G1 F7200.000
G1 X89.217 Y64.791 E-0.61621
G1 X89.638 Y63.663 E-0.57171
G1 X90.165 Y62.699 E-0.52208
;WIPE_END
G1 E-0.09000 F3600.000
G1 X131.522 Y81.049 F9000.000
G1 E6.00000 F2400.000
;TYPE:Perimeter
G1 F1200.000
G1 X131.749 Y80.501 E0.02630
G1 X132.110 Y80.031 E0.02630
G1 X132.580 Y79.670 E0.02630
G1 X133.128 Y79.443 E0.02630
G1 X133.716 Y79.365 E0.02630
G1 X134.304 Y79.443 E0.02630
G1 X134.852 Y79.670 E0.02630
G1 X135.322 Y80.031 E0.02630
G1 X135.683 Y80.501 E0.02630
G1 X135.910 Y81.049 E0.02630
G1 X135.987 Y81.637 E0.02630
G1 X135.910 Y82.224 E0.02630
G1 X135.683 Y82.772 E0.02630
G1 X135.322 Y83.243 E0.02630
G1 X134.852 Y83.604 E0.02630
G1 X134.304 Y83.831 E0.02630
G1 X133.716 Y83.908 E0.02630
G1 X133.128 Y83.831 E0.02630
G1 X132.580 Y83.604 E0.02630
G1 X132.110 Y83.243 E0.02630
G1 X131.749 Y82.772 E0.02630
G1 X131.522 Y82.224 E0.02630
G1 X131.444 Y81.637 E0.02630
G1 X131.514 Y81.108 E0.02364
G1 X131.867 Y81.155 F9000.000
;TYPE:External perimeter
G1 F1200.000
G1 X132.059 Y80.680 E0.02271
G1 X132.363 Y80.284 E0.02215
G1 X132.760 Y79.980 E0.02215
G1 X133.221 Y79.789 E0.02215
G1 X133.716 Y79.724 E0.02215
G1 X134.211 Y79.789 E0.02215
G1 X134.672 Y79.980 E0.02215
G1 X135.068 Y80.284 E0.02215
G1 X135.372 Y80.680 E0.02215
G1 X135.563 Y81.142 E0.02215
G1 X135.629 Y81.637 E0.02215
G1 X135.563 Y82.132 E0.02215
G1 X135.372 Y82.593 E0.02215
G1 X135.068 Y82.989 E0.02215
G1 X134.672 Y83.293 E0.02215
G1 X134.211 Y83.484 E0.02215
G1 X133.716 Y83.549 E0.02215
G1 X133.221 Y83.484 E0.02215
G1 X132.760 Y83.293 E0.02215
G1 X132.363 Y82.989 E0.02215
G1 X132.059 Y82.593 E0.02215
G1 X131.868 Y82.132 E0.02215
G1 X131.803 Y81.637 E0.02215
G1 X131.859 Y81.214 E0.01890
G1 X131.582 Y80.873 F9000.000
G1 E-4.20000 F3600.000
;WIPE_START
G1 F7200.000
G1 X132.059 Y80.680 E-0.27090
G1 X132.363 Y80.284 E-0.23717
G1 X132.760 Y79.980 E-0.23717
G1 X133.221 Y79.789 E-0.23717
G1 X133.716 Y79.724 E-0.23717
G1 X134.211 Y79.789 E-0.23717
G1 X134.672 Y79.980 E-0.23717
G1 X134.699 Y80.001 E-0.01608
;WIPE_END
G1 E-0.09000 F3600.000
G1 X133.716 Y38.038 F9000.000
G1 E6.00000 F2400.000
;TYPE:Perimeter
G1 F1200.000
G1 X133.128 Y37.961 E0.02630
G1 X132.580 Y37.734 E0.02630
G1 X132.110 Y37.373 E0.02630
G1 X131.749 Y36.902 E0.02630
G1 X131.522 Y36.354 E0.02630
G1 X131.444 Y35.767 E0.02630
G1 X131.522 Y35.179 E0.02630
G1 X131.749 Y34.631 E0.02630
G1 X132.110 Y34.161 E0.02630
G1 X132.580 Y33.800 E0.02630
G1 X133.128 Y33.573 E0.02630
G1 X133.716 Y33.495 E0.02630
G1 X134.304 Y33.573 E0.02630
G1 X134.852 Y33.800 E0.02630
G1 X135.322 Y34.161 E0.02630
G1 X135.683 Y34.631 E0.02630
G1 X135.910 Y35.179 E0.02630
G1 X135.987 Y35.767 E0.02630
G1 X135.910 Y36.354 E0.02630
G1 X135.683 Y36.902 E0.02630
G1 X135.322 Y37.373 E0.02630
G1 X134.852 Y37.734 E0.02630
G1 X134.304 Y37.961 E0.02630
G1 X133.775 Y38.030 E0.02364
G1 X133.729 Y37.678 F9000.000
;TYPE:External perimeter
G1 F1200.000
G1 X133.221 Y37.614 E0.02271
G1 X132.760 Y37.423 E0.02215
G1 X132.363 Y37.119 E0.02215
G1 X132.059 Y36.723 E0.02215
G1 X131.868 Y36.262 E0.02215
G1 X131.803 Y35.767 E0.02215
G1 X131.868 Y35.272 E0.02215
G1 X132.059 Y34.810 E0.02215
G1 X132.363 Y34.414 E0.02215
G1 X132.760 Y34.110 E0.02215
G1 X133.221 Y33.919 E0.02215
G1 X133.716 Y33.854 E0.02215
G1 X134.211 Y33.919 E0.02215
G1 X134.672 Y34.110 E0.02215
G1 X135.068 Y34.414 E0.02215
G1 X135.372 Y34.810 E0.02215
G1 X135.563 Y35.272 E0.02215
G1 X135.629 Y35.767 E0.02215
G1 X135.563 Y36.262 E0.02215
G1 X135.372 Y36.723 E0.02215
G1 X135.068 Y37.119 E0.02215
G1 X134.672 Y37.423 E0.02215
G1 X134.211 Y37.614 E0.02215
G1 X133.788 Y37.670 E0.01890
G1 X133.531 Y38.025 F9000.000
G1 E-4.20000 F3600.000
;WIPE_START
G1 F7200.000
G1 X133.221 Y37.614 E-0.27090
G1 X132.760 Y37.423 E-0.23717
G1 X132.363 Y37.119 E-0.23717
G1 X132.059 Y36.723 E-0.23717
G1 X131.868 Y36.262 E-0.23717
G1 X131.803 Y35.767 E-0.23717
G1 X131.868 Y35.272 E-0.23717
G1 X131.881 Y35.240 E-0.01607
;WIPE_END
G1 E-0.09000 F3600.000
G1 X28.617 Y35.767 F9000.000
G1 E6.00000 F2400.000
;TYPE:Perimeter
G1 F1200.000
G1 X28.540 Y36.354 E0.02630
G1 X28.313 Y36.902 E0.02630
G1 X27.952 Y37.373 E0.02630
G1 X27.482 Y37.734 E0.02630
G1 X26.934 Y37.961 E0.02630
G1 X26.346 Y38.038 E0.02630
G1 X25.758 Y37.961 E0.02630
G1 X25.210 Y37.734 E0.02630
G1 X24.740 Y37.373 E0.02630
G1 X24.379 Y36.902 E0.02630
G1 X24.152 Y36.354 E0.02630
G1 X24.075 Y35.767 E0.02630
G1 X24.152 Y35.179 E0.02630
G1 X24.379 Y34.631 E0.02630
G1 X24.740 Y34.161 E0.02630
G1 X25.210 Y33.800 E0.02630
G1 X25.758 Y33.573 E0.02630
G1 X26.346 Y33.495 E0.02630
G1 X26.934 Y33.573 E0.02630
G1 X27.482 Y33.800 E0.02630
